public/error-img.svg

<svg xmlns="http://www.w3.org/2000/svg" width="950" height="605" fill="none"><path fill="#EFF1F3" d="M4 0h946v600H4z"/><path fill="#C2CED8" d="M546.475 187.295a44.242 44.242 0 0 1 44.24 44.233v122.246q.008.205 0 .41v24.283a44.244 44.244 0 0 1-44.24 44.238H399.538a44.238 44.238 0 0 1-44.233-44.238V231.528a44.24 44.24 0 0 1 12.954-31.279 44.23 44.23 0 0 1 31.279-12.954zm-104.08 104.76c-4.042.001-8.577 1.707-13.115 6.055l-58.975 58.975v21.382a29.24 29.24 0 0 0 29.233 29.238h146.937a29.24 29.24 0 0 0 20.675-8.565 29.23 29.23 0 0 0 8.565-20.673v-21.392l-34.47-34.473c-4.54-4.349-9.08-6.059-13.12-6.059-4.045 0-8.58 1.711-13.12 6.059l-6.895 6.89 19.18 19.185a7.496 7.496 0 0 1 0 10.605c-2.925 2.929-7.675 2.928-10.605 0l-61.17-61.172c-4.539-4.349-9.078-6.055-13.12-6.055m-42.857-89.76a29.23 29.23 0 0 0-20.669 8.564 29.23 29.23 0 0 0-8.564 20.669v104.346l48.525-48.526c6.807-6.549 14.938-10.292 23.565-10.293s16.762 3.743 23.569 10.293l31.538 31.538 6.953-6.948.105-.097c6.805-6.551 14.935-10.298 23.565-10.298 8.625 0 16.76 3.747 23.565 10.298l.105.097 23.92 23.921V231.528a29.22 29.22 0 0 0-8.565-20.669 29.24 29.24 0 0 0-20.675-8.564zm110.702 39.033c8.115 0 14.7 6.577 14.7 14.692s-6.585 14.693-14.7 14.693c-8.115-.001-14.69-6.578-14.691-14.693 0-8.114 6.576-14.691 14.691-14.692"/></svg>

<svg width="950" height="605" viewBox="0 0 950 605" fill="none" xmlns="http://www.w3.org/2000/svg">
<path d="M4 0H950V600H4V0Z" fill="#EFF1F3"/>
<path d="M546.475 187.295C558.21 187.295 569.46 191.954 577.755 200.249C586.05 208.544 590.715 219.797 590.715 231.528V353.774C590.72 353.911 590.72 354.047 590.715 354.184V378.467C590.715 390.198 586.05 401.45 577.755 409.746C569.46 418.041 558.21 422.705 546.475 422.705H399.538C387.807 422.704 376.554 418.041 368.259 409.746C359.964 401.45 355.305 390.198 355.305 378.467V231.528C355.305 219.797 359.964 208.544 368.259 200.249C376.554 191.953 387.807 187.295 399.538 187.295H546.475ZM442.395 292.055C438.353 292.056 433.818 293.762 429.28 298.11L370.305 357.085V378.467C370.305 386.22 373.387 393.658 378.869 399.14C384.352 404.622 391.786 407.704 399.538 407.705H546.475C554.23 407.705 561.67 404.623 567.15 399.14C572.635 393.658 575.715 386.22 575.715 378.467V357.075L541.245 322.602C536.705 318.253 532.165 316.543 528.125 316.543C524.08 316.543 519.545 318.254 515.005 322.602L508.11 329.492L527.29 348.677C530.22 351.605 530.22 356.353 527.29 359.282C524.365 362.211 519.615 362.21 516.685 359.282L455.515 298.11C450.976 293.761 446.437 292.055 442.395 292.055ZM399.538 202.295C391.785 202.295 384.352 205.377 378.869 210.859C373.387 216.341 370.305 223.775 370.305 231.528V335.874L418.83 287.348C425.637 280.799 433.768 277.056 442.395 277.055C451.023 277.055 459.157 280.798 465.964 287.348L497.502 318.886L504.455 311.938L504.56 311.841C511.365 305.29 519.495 301.543 528.125 301.543C536.75 301.543 544.885 305.29 551.69 311.841L551.795 311.938L575.715 335.859V231.528C575.715 223.775 572.635 216.341 567.15 210.859C561.67 205.377 554.23 202.295 546.475 202.295H399.538ZM510.24 241.328C518.355 241.328 524.94 247.905 524.94 256.02C524.94 264.135 518.355 270.713 510.24 270.713C502.125 270.712 495.55 264.135 495.549 256.02C495.549 247.906 502.125 241.329 510.24 241.328Z" fill="#C2CED8"/>
</svg>
